1.Normal/chrome/Icons/whatsnew.svg

<svg xmlns="http://www.w3.org/2000/svg" width="16" height="16" viewBox="0 0 16 16">
   <path
   style="fill:context-fill;fill-opacity:context-fill-opacity"
   d="M 6 0 C 4.61929 0 3.5 1.11929 3.5 2.5 C 3.5 3.06324 3.68571 3.582 4 4 L 2 4 C 1.44772 4 1 4.44772 1 5 L 1 8 C 1 8.5523 1.44772 9 2 9 L 2 13.5 C 2 14.8807 3.11929 16 4.5 16 L 11.5 16 C 12.8807 16 14 14.8807 14 13.5 L 14 9 C 14.5523 9 15 8.5523 15 8 L 15 5 C 15 4.44772 14.5523 4 14 4 L 12 4 C 12.3142 3.582 12.5 3.06324 12.5 2.5 C 12.5 1.11929 11.3807 0 10 0 C 9.1816 1.4802974e-16 8.4560531 0.39412312 8.0019531 1.0019531 C 7.5458831 0.39412312 6.81839 0 6 0 z M 6 1 C 6.7797 1 7.4195075 1.5948187 7.4921875 2.3554688 L 7.5 2.5 L 7.5 4 L 6 4 L 5.8554688 3.9921875 C 5.0948188 3.9195075 4.5 3.2797 4.5 2.5 C 4.5 1.67157 5.17157 1 6 1 z M 10 1 C 10.8284 1 11.5 1.67157 11.5 2.5 C 11.5 3.32843 10.8284 4 10 4 L 8.5 4 L 8.5 2.5 C 8.5 1.67157 9.1716 1 10 1 z M 2 5 L 7.5 5 L 7.5 8 L 2 8 L 2 5 z M 8.5 5 L 14 5 L 14 8 L 8.5 8 L 8.5 5 z M 3 9 L 7.5 9 L 7.5 15 L 4.5 15 C 3.67157 15 3 14.3284 3 13.5 L 3 9 z M 8.5 9 L 13 9 L 13 13.5 C 13 14.3284 12.3284 15 11.5 15 L 8.5 15 L 8.5 9 z " />
</svg>

<svg xmlns="http://www.w3.org/2000/svg" width="16" height="16">
  <path style="fill:context-fill;fill-opacity:context-fill-opacity" d="M6 0a2.5 2.5 0 0 0-2 4H2a1 1 0 0 0-1 1v3a1 1 0 0 0 1 1v4.5A2.5 2.5 0 0 0 4.5 16h7a2.5 2.5 0 0 0 2.5-2.5V9a1 1 0 0 0 1-1V5a1 1 0 0 0-1-1h-2a2.5 2.5 0 0 0-2-4c-.818 0-1.544.394-1.998 1.002A2.499 2.499 0 0 0 6 0zm0 1a1.5 1.5 0 0 1 1.492 1.355L7.5 2.5V4H6l-.145-.008A1.5 1.5 0 0 1 6 1zm4 0a1.5 1.5 0 0 1 0 3H8.5V2.5A1.5 1.5 0 0 1 10 1zM2 5h5.5v3H2V5zm6.5 0H14v3H8.5V5zM3 9h4.5v6h-3A1.5 1.5 0 0 1 3 13.5V9zm5.5 0H13v4.5a1.5 1.5 0 0 1-1.5 1.5h-3V9z"/>
</svg>
